brandFactory_export/1.Light/Nuevo_Destacado_Oferta_1Light.svg

<?xml version="1.0" encoding="UTF-8"?>
<svg width="24px" height="24px" viewBox="0 0 24 24" version="1.1" xmlns="http://www.w3.org/2000/svg" xmlns:xlink="http://www.w3.org/1999/xlink">
    <title>1.Light/Nuevo_Destacado_Oferta_1Light</title>
    <g id="Symbols" stroke="none" stroke-width="1" fill="none" fill-rule="evenodd">
        <g id="1.Light/Nuevo_Destacado_Oferta_1Light" fill="#5CB615" fill-rule="nonzero">
            <path d="M11.7109244,23.4184874 C11.0285714,23.4184874 10.5915966,22.6184874 10.1647059,21.8453782 C9.9092437,21.3815126 9.55966387,20.7462185 9.30420168,20.6789916 C9.02857143,20.605042 8.38655462,20.9915966 7.92268908,21.2739496 C7.14957983,21.7411765 6.42016807,22.1815126 5.85210084,21.8521008 C5.27394958,21.5193277 5.29411765,20.6588235 5.31428571,19.7478992 C5.32436975,19.210084 5.34117647,18.4705882 5.14621849,18.2756303 C4.9512605,18.0806723 4.21176471,18.0941176 3.67394958,18.107563 C2.76302521,18.1277311 1.90252101,18.1445378 1.5697479,17.5697479 C1.24033613,16.9983193 1.68067227,16.2689076 2.14453782,15.4957983 C2.42689076,15.0285714 2.81344538,14.389916 2.7394958,14.1142857 C2.67226891,13.8588235 2.03697479,13.5092437 1.57310924,13.2537815 C0.8,12.8302521 0,12.389916 0,11.7109244 C0,11.0319328 0.8,10.5915966 1.57310924,10.1647059 C2.03697479,9.9092437 2.67226891,9.55966387 2.7394958,9.30420168 C2.81344538,9.02857143 2.42689076,8.38655462 2.14453782,7.92268908 C1.67731092,7.14957983 1.23697479,6.42016807 1.56638655,5.85210084 C1.89915966,5.27394958 2.75966387,5.29411765 3.67058824,5.31428571 C4.20840336,5.32436975 4.94789916,5.34117647 5.14285714,5.14621849 C5.33781513,4.9512605 5.32436975,4.21176471 5.31092437,3.67394958 C5.2907563,2.76302521 5.27394958,1.90252101 5.8487395,1.5697479 C6.41680672,1.24033613 7.14621849,1.68067227 7.91932773,2.14789916 C8.38655462,2.4302521 9.02521008,2.81680672 9.30084034,2.74285714 C9.55630252,2.67563025 9.90588235,2.04033613 10.1613445,1.57647059 C10.5915966,0.8 11.0285714,0 11.7109244,0 C12.3932773,0 12.8302521,0.8 13.2537815,1.57310924 C13.5092437,2.03697479 13.8588235,2.67226891 14.1142857,2.7394958 C14.3932773,2.81344538 15.0319328,2.42689076 15.4957983,2.14453782 C16.2689076,1.67731092 16.9983193,1.23697479 17.5663866,1.56638655 C18.1445378,1.89915966 18.1243697,2.75966387 18.1042017,3.67058824 C18.0941176,4.20840336 18.0773109,4.94789916 18.2722689,5.14285714 C18.4672269,5.33781513 19.2067227,5.32436975 19.7445378,5.31092437 C20.6554622,5.2907563 21.5159664,5.27394958 21.8487395,5.8487395 C22.1781513,6.41680672 21.7378151,7.14621849 21.2705882,7.91932773 C20.9882353,8.38655462 20.6016807,9.02521008 20.6756303,9.30084034 C20.7428571,9.55630252 21.3781513,9.90588235 21.8420168,10.1613445 C22.6151261,10.5848739 23.4151261,11.0252101 23.4151261,11.707563 C23.4151261,12.389916 22.6184874,12.8302521 21.8453782,13.2537815 C21.3815126,13.5092437 20.7462185,13.8588235 20.6789916,14.1142857 C20.605042,14.3932773 20.9915966,15.0319328 21.2739496,15.4957983 C21.7411765,16.2689076 22.1815126,16.9983193 21.8521008,17.5663866 C21.5193277,18.1445378 20.6588235,18.1243697 19.7478992,18.1042017 C19.210084,18.0941176 18.4705882,18.0773109 18.2756303,18.2722689 C18.0806723,18.4672269 18.0941176,19.2067227 18.107563,19.7445378 C18.1277311,20.6554622 18.1445378,21.5159664 17.5697479,21.8487395 C17.0016807,22.1781513 16.2722689,21.7378151 15.4991597,21.2705882 C15.0319328,20.9882353 14.3932773,20.6016807 14.1176471,20.6756303 C13.8621849,20.7428571 13.512605,21.3781513 13.2571429,21.8420168 C12.8302521,22.6218487 12.389916,23.4184874 11.7109244,23.4184874 Z M9.2302521,20 C9.31428571,20 9.39831933,20.010084 9.4789916,20.0302521 C10.0134454,20.1714286 10.3731092,20.8302521 10.7529412,21.5226891 C11.0218487,22.010084 11.4252101,22.7462185 11.707563,22.7462185 C11.989916,22.7462185 12.3966387,22.010084 12.6621849,21.5226891 C13.0453782,20.8268908 13.405042,20.1714286 13.9361345,20.0302521 C14.4907563,19.8823529 15.1462185,20.2789916 15.8386555,20.6991597 C16.302521,20.9781513 16.9983193,21.4016807 17.2235294,21.2705882 C17.4554622,21.1361345 17.4386555,20.3092437 17.4285714,19.7613445 C17.4117647,18.9579832 17.394958,18.1983193 17.794958,17.7983193 C18.194958,17.3983193 18.9546218,17.4151261 19.7579832,17.4319328 C20.3058824,17.4420168 21.1327731,17.4621849 21.2672269,17.2268908 C21.3983193,17.0016807 20.9747899,16.302521 20.6957983,15.8420168 C20.2756303,15.1462185 19.8789916,14.4907563 20.0268908,13.9394958 C20.1680672,13.405042 20.8268908,13.0453782 21.5193277,12.6655462 C22.0067227,12.3966387 22.7428571,11.9932773 22.7428571,11.7109244 C22.7428571,11.4285714 22.0067227,11.0218487 21.5193277,10.7563025 C20.8235294,10.3731092 20.1680672,10.0134454 20.0268908,9.48235294 C19.8789916,8.92773109 20.2756303,8.27226891 20.6957983,7.57983193 C20.9747899,7.11596639 21.3983193,6.41680672 21.2672269,6.19495798 C21.1327731,5.96302521 20.3058824,5.97983193 19.7579832,5.98991597 C18.9546218,6.00672269 18.194958,6.02352941 17.794958,5.62352941 C17.394958,5.22352941 17.4117647,4.46722689 17.4285714,3.6605042 C17.4386555,3.11260504 17.4588235,2.28907563 17.2235294,2.15462185 C16.9983193,2.02352941 16.2991597,2.44705882 15.8386555,2.72605042 C15.1428571,3.14621849 14.487395,3.54285714 13.9361345,3.39495798 C13.4016807,3.25378151 13.0420168,2.59495798 12.6621849,1.90252101 C12.3932773,1.41512605 11.989916,0.678991597 11.707563,0.678991597 C11.4252101,0.678991597 11.0218487,1.40840336 10.7563025,1.89579832 C10.3731092,2.59159664 10.0134454,3.24705882 9.4789916,3.38823529 C8.92436975,3.53613445 8.26890756,3.1394958 7.57647059,2.71932773 C7.11260504,2.44033613 6.41344538,2.01680672 6.19159664,2.14789916 C5.95966387,2.28235294 5.97647059,3.1092437 5.98655462,3.65714286 C6.00336134,4.4605042 6.02016807,5.22016807 5.62016807,5.62016807 C5.22016807,6.02016807 4.46386555,6.00336134 3.65714286,5.98655462 C3.1092437,5.97310924 2.28235294,5.95630252 2.14789916,6.19159664 C2.01680672,6.41680672 2.44033613,7.11596639 2.71932773,7.57647059 C3.1394958,8.26890756 3.53613445,8.92773109 3.38823529,9.4789916 C3.24705882,10.0134454 2.58823529,10.3731092 1.89579832,10.7563025 C1.40840336,11.0252101 0.672268908,11.4285714 0.672268908,11.7109244 C0.672268908,11.9932773 1.40840336,12.4 1.89579832,12.6655462 C2.59159664,13.0487395 3.24705882,13.4084034 3.38823529,13.9394958 C3.53613445,14.4941176 3.1394958,15.1495798 2.71932773,15.8420168 C2.44033613,16.3058824 2.01680672,17.0016807 2.14789916,17.2268908 C2.28235294,17.4588235 3.1092437,17.4420168 3.65714286,17.4319328 C4.4605042,17.4151261 5.22016807,17.3983193 5.62016807,17.7983193 C6.02016807,18.1983193 6.00336134,18.9546218 5.98655462,19.7579832 C5.97310924,20.3058824 5.95630252,21.1327731 6.19159664,21.2672269 C6.41680672,21.3983193 7.11596639,20.9747899 7.57647059,20.6957983 C8.16806723,20.3394958 8.73277311,20 9.2302521,20 L9.2302521,20 Z" id="Nuevo_Destacado_Oferta_1Light"></path>
        </g>
    </g>
</svg>

<svg width="24" height="24" viewBox="0 0 24 24" xmlns="http://www.w3.org/2000/svg"><path d="M11.71 23.418c-.681 0-1.118-.8-1.545-1.573-.256-.463-.605-1.099-.86-1.166-.276-.074-.918.313-1.382.595-.773.467-1.503.908-2.07.578-.58-.333-.559-1.193-.539-2.104.01-.538.027-1.277-.168-1.472-.195-.195-.934-.182-1.472-.168-.911.02-1.771.037-2.104-.538-.33-.572.11-1.301.575-2.074.282-.467.668-1.106.594-1.382-.067-.255-.702-.605-1.166-.86C.8 12.83 0 12.39 0 11.71c0-.68.8-1.12 1.573-1.546.464-.256 1.1-.605 1.166-.86.074-.276-.312-.918-.594-1.382-.468-.773-.908-1.503-.579-2.07.333-.58 1.194-.559 2.105-.539.537.01 1.277.027 1.472-.168.195-.195.181-.934.168-1.472-.02-.911-.037-1.771.538-2.104.568-.33 1.297.11 2.07.578.468.282 1.106.669 1.382.595.255-.067.605-.703.86-1.167C10.591.8 11.03 0 11.711 0s1.12.8 1.543 1.573c.255.464.605 1.1.86 1.166.28.074.918-.312 1.382-.594.773-.468 1.502-.908 2.07-.579.579.333.558 1.194.538 2.105-.01.537-.027 1.277.168 1.472.195.195.935.181 1.473.168.91-.02 1.771-.037 2.104.538.33.568-.111 1.297-.578 2.07-.283.468-.67 1.106-.595 1.382.067.255.702.605 1.166.86.773.424 1.573.864 1.573 1.547 0 .682-.797 1.122-1.57 1.546-.463.255-1.099.605-1.166.86-.074.28.313.918.595 1.382.467.773.908 1.502.578 2.07-.333.579-1.193.558-2.104.538-.538-.01-1.277-.027-1.472.168-.195.195-.182.935-.168 1.473.02.91.037 1.771-.538 2.104-.568.33-1.298-.111-2.07-.578-.468-.283-1.107-.67-1.382-.595-.256.067-.605.702-.86 1.166-.428.78-.868 1.576-1.547 1.576zM9.23 20c.084 0 .168.01.249.03.534.141.894.8 1.274 1.493.269.487.672 1.223.955 1.223.282 0 .689-.736.954-1.223.383-.696.743-1.352 1.274-1.493.555-.148 1.21.249 1.903.67.464.278 1.16.702 1.385.57.231-.134.215-.96.205-1.509-.017-.803-.034-1.563.366-1.963.4-.4 1.16-.383 1.963-.366.548.01 1.375.03 1.51-.205.13-.225-.293-.924-.572-1.385-.42-.696-.817-1.351-.67-1.903.142-.534.8-.894 1.493-1.273.488-.27 1.224-.673 1.224-.955 0-.282-.736-.69-1.224-.955-.695-.383-1.35-.743-1.492-1.274-.148-.554.249-1.21.669-1.902.279-.464.702-1.163.571-1.385-.134-.232-.961-.215-1.509-.205-.803.017-1.563.034-1.963-.366-.4-.4-.383-1.157-.366-1.963.01-.548.03-1.372-.205-1.506-.226-.131-.925.292-1.385.571-.696.42-1.352.817-1.903.669-.534-.141-.894-.8-1.274-1.492-.269-.488-.672-1.224-.954-1.224-.283 0-.686.73-.952 1.217-.383.696-.743 1.351-1.277 1.492-.555.148-1.21-.249-1.903-.669-.463-.279-1.163-.702-1.384-.571-.232.134-.216.961-.205 1.51.016.803.033 1.562-.367 1.962-.4.4-1.156.383-1.963.367-.548-.014-1.375-.03-1.51.205-.13.225.293.924.572 1.384.42.693.817 1.352.67 1.903-.142.534-.8.894-1.493 1.277-.488.27-1.224.673-1.224.955 0 .282.736.689 1.224.955.696.383 1.351.742 1.492 1.273.148.555-.249 1.21-.669 1.903-.279.464-.702 1.16-.571 1.385.134.232.961.215 1.51.205.803-.017 1.562-.034 1.962.366.4.4.383 1.157.367 1.96-.014.548-.03 1.375.205 1.51.225.13.924-.293 1.384-.572C8.168 20.339 8.733 20 9.23 20z" fill="#5CB615" fill-rule="nonzero"/></svg>
